assets/svg/icon_post_boldtext_on.svg

<svg width="24" height="24" viewBox="0 0 24 24" fill="none" xmlns="http://www.w3.org/2000/svg">
<path d="M9.40078 12.5992H12.8008C13.7949 12.5992 14.6008 13.4051 14.6008 14.3992C14.6008 15.3933 13.7949 16.1992 12.8008 16.1992H9.74196C9.55353 16.1992 9.40078 16.0465 9.40078 15.858V12.5992Z" fill="#0166FF"/>
<path d="M12.0008 11.3992H9.40078V8.41661C9.40078 8.07563 9.6772 7.79922 10.0182 7.79922H12.0008C12.9949 7.79922 13.8008 8.60511 13.8008 9.59922C13.8008 10.5933 12.9949 11.3992 12.0008 11.3992Z" fill="#0166FF"/>
<path fill-rule="evenodd" clip-rule="evenodd" d="M4.31802 4.31802C3 5.63604 3 7.75736 3 12C3 16.2426 3 18.364 4.31802 19.682C5.63604 21 7.75736 21 12 21C16.2426 21 18.364 21 19.682 19.682C21 18.364 21 16.2426 21 12C21 7.75736 21 5.63604 19.682 4.31802C18.364 3 16.2426 3 12 3C7.75736 3 5.63604 3 4.31802 4.31802ZM10.0182 6.59922C9.01445 6.59922 8.20078 7.41289 8.20078 8.41661V15.858C8.20078 16.7092 8.89079 17.3992 9.74196 17.3992H12.8008C14.4576 17.3992 15.8008 16.0561 15.8008 14.3992C15.8008 13.2206 15.1211 12.2008 14.1324 11.7102C14.6692 11.1681 15.0008 10.4224 15.0008 9.59922C15.0008 7.94236 13.6576 6.59922 12.0008 6.59922H10.0182Z" fill="#0166FF"/>
</svg>

<svg xmlns="http://www.w3.org/2000/svg" width="24" height="24" fill="none"><path fill="#0166FF" d="M9.4 12.6h3.4a1.8 1.8 0 0 1 0 3.6H9.743a.34.34 0 0 1-.341-.342zM12 11.4H9.4V8.416c0-.341.277-.618.618-.618h1.983a1.8 1.8 0 0 1 0 3.6"/><path fill="#0166FF" fill-rule="evenodd" d="M4.318 4.318C3 5.636 3 7.758 3 12s0 6.364 1.318 7.682S7.758 21 12 21s6.364 0 7.682-1.318S21 16.242 21 12s0-6.364-1.318-7.682S16.242 3 12 3 5.636 3 4.318 4.318m5.7 2.281a1.817 1.817 0 0 0-1.817 1.818v7.441c0 .851.69 1.541 1.541 1.541h3.059a3 3 0 0 0 1.331-5.689A3 3 0 0 0 12 6.6z" clip-rule="evenodd"/></svg>
